X: 08092
T: PHOEBE'S HORNPIPE
C: Bob McQuillen 28 Jan 91
B: Bob's Note Book 8 #92
%R: hornpiep, reel
Z: 2021 John Chambers <jc:trillian.mit.edu>
M: C
L: 1/8
K: D
AG \
| FAdf edce | d2AF GBAG | FDFA dfed | c2e2 e2AG |\
| FAdf edce | d2AF GBAG | FDFA dBAG | F2D2 D2 :|
|: de \
| f2fd edBA | fded BAFA | d2dB AFBA | G2E2 E2FE |\
| DFAF GBAG | FAdf edcB | Adfa gecd | e2d2 d2 :|
%%begintext align
%% I haven't seen
%% Phoebe Allen in a long time, but she's David's sister,
%% and she was a real sweetheart when she danced in
%% Figzwilliam years ago. Their nice mother (Mrs. Ray
%% Allen) danced, too, and it was fun to see all three
%% of them on the floor at the same time.
%%endtext

%%sep 1 1 500

%%sep 1 1 500

